Title: CVE-2025-68327: usb: renesas_usbhs: Fix synchronous external abort on unbind

Introduced Version: 3.0

Content:
CVE-2025-68327: usb: renesas_usbhs: Fix synchronous external abort on unbind

In the Linux kernel, the following vulnerability has been resolved:

usb: renesas_usbhs: Fix synchronous external abort on unbind

A synchronous external abort occurs on the Renesas RZ/G3S SoC if unbind is
executed after the configuration sequence described above:

modprobe usb_f_ecm
modprobe libcomposite
modprobe configfs
cd /sys/kernel/config/usb_gadget
mkdir -p g1
cd g1
echo "0x1d6b" > idVendor
echo "0x0104" > idProduct
mkdir -p strings/0x409
echo "0123456789" > strings/0x409/serialnumber
echo "Renesas." > strings/0x409/manufacturer
echo "Ethernet Gadget" > strings/0x409/product
mkdir -p functions/ecm.usb0
mkdir -p configs/c.1
mkdir -p configs/c.1/strings/0x409
echo "ECM" > configs/c.1/strings/0x409/configuration

if [ ! -L configs/c.1/ecm.usb0 ]; then
        ln -s functions/ecm.usb0 configs/c.1
fi

echo 11e20000.usb > UDC
echo 11e20000.usb > /sys/bus/platform/drivers/renesas_usbhs/unbind

The displayed trace is as follows:

 Internal error: synchronous external abort: 0000000096000010 [#1] SMP
 CPU: 0 UID: 0 PID: 188 Comm: sh Tainted: G M 6.17.0-rc7-next-20250922-00010-g41050493b2bd #55 PREEMPT
 Tainted: [M]=MACHINE_CHECK
 Hardware name: Renesas SMARC EVK version 2 based on r9a08g045s33 (DT)
 pstate: 604000c5 (nZCv daIF +PAN -UAO -TCO -DIT -SSBS BTYPE=--)
 pc : usbhs_sys_function_pullup+0x10/0x40 [renesas_usbhs]
 lr : usbhsg_update_pullup+0x3c/0x68 [renesas_usbhs]
 sp : ffff8000838b3920
 x29: ffff8000838b3920 x28: ffff00000d585780 x27: 0000000000000000
 x26: 0000000000000000 x25: 0000000000000000 x24: ffff00000c3e3810
 x23: ffff00000d5e5c80 x22: ffff00000d5e5d40 x21: 0000000000000000
 x20: 0000000000000000 x19: ffff00000d5e5c80 x18: 0000000000000020
 x17: 2e30303230316531 x16: 312d7968703a7968 x15: 3d454d414e5f4344
 x14: 000000000000002c x13: 0000000000000000 x12: 0000000000000000
 x11: ffff00000f358f38 x10: ffff00000f358db0 x9 : ffff00000b41f418
 x8 : 0101010101010101 x7 : 7f7f7f7f7f7f7f7f x6 : fefefeff6364626d
 x5 : 8080808000000000 x4 : 000000004b5ccb9d x3 : 0000000000000000
 x2 : 0000000000000000 x1 : ffff800083790000 x0 : ffff00000d5e5c80
 Call trace:
 usbhs_sys_function_pullup+0x10/0x40 [renesas_usbhs] (P)
 usbhsg_pullup+0x4c/0x7c [renesas_usbhs]
 usb_gadget_disconnect_locked+0x48/0xd4
 gadget_unbind_driver+0x44/0x114
 device_remove+0x4c/0x80
 device_release_driver_internal+0x1c8/0x224
 device_release_driver+0x18/0x24
 bus_remove_device+0xcc/0x10c
 device_del+0x14c/0x404
 usb_del_gadget+0x88/0xc0
 usb_del_gadget_udc+0x18/0x30
 usbhs_mod_gadget_remove+0x24/0x44 [renesas_usbhs]
 usbhs_mod_remove+0x20/0x30 [renesas_usbhs]
 usbhs_remove+0x98/0xdc [renesas_usbhs]
 platform_remove+0x20/0x30
 device_remove+0x4c/0x80
 device_release_driver_internal+0x1c8/0x224
 device_driver_detach+0x18/0x24
 unbind_store+0xb4/0xb8
 drv_attr_store+0x24/0x38
 sysfs_kf_write+0x7c/0x94
 kernfs_fop_write_iter+0x128/0x1b8
 vfs_write+0x2ac/0x350
 ksys_write+0x68/0xfc
 __arm64_sys_write+0x1c/0x28
 invoke_syscall+0x48/0x110
 el0_svc_common.constprop.0+0xc0/0xe0
 do_el0_svc+0x1c/0x28
 el0_svc+0x34/0xf0
 el0t_64_sync_handler+0xa0/0xe4
 el0t_64_sync+0x198/0x19c
 Code: 7100003f 1a9f07e1 531c6c22 f9400001 (79400021)
 ---[ end trace 0000000000000000 ]---
 note: sh[188] exited with irqs disabled
 note: sh[188] exited with preempt_count 1

The issue occurs because usbhs_sys_function_pullup(), which accesses the IP
registers, is executed after the USBHS clocks have been disabled. The
problem is reproducible on the Renesas RZ/G3S SoC starting with the
addition of module stop in the clock enable/disable APIs. With module stop
functionality enabled, a bus error is expected if a master accesses a
module whose clock has been stopped and module stop activated.

Disable the IP clocks at the end of remove.

The Linux kernel CVE team has assigned CVE-2025-68327 to this issue.


Affected and fixed versions
===========================

	Issue introduced in 3.0 with commit f1407d5c66240b33d11a7f1a41d55ccf6a9d7647 and fixed in 5.10.247 with commit fd1a7bf3a8cac13f6d2d52d8c7570ba41621db9a
	Issue introduced in 3.0 with commit f1407d5c66240b33d11a7f1a41d55ccf6a9d7647 and fixed in 5.15.197 with commit cd5e86e34c66a831b5cb9b720ad411a006962cc8
	Issue introduced in 3.0 with commit f1407d5c66240b33d11a7f1a41d55ccf6a9d7647 and fixed in 6.1.159 with commit 230b1bc1310edcd5c1b71dcd6b77ccba43139cb5
	Issue introduced in 3.0 with commit f1407d5c66240b33d11a7f1a41d55ccf6a9d7647 and fixed in 6.6.119 with commit 9d86bc8b188a77c8d6f7252280ec2bd24ad6fbc1
	Issue introduced in 3.0 with commit f1407d5c66240b33d11a7f1a41d55ccf6a9d7647 and fixed in 6.12.61 with commit 26838f147aeaa8f820ff799d72815fba5e209bd9
	Issue introduced in 3.0 with commit f1407d5c66240b33d11a7f1a41d55ccf6a9d7647 and fixed in 6.17.11 with commit aa658a6d5ac21c7cde54c6d015f2d4daff32e02d
	Issue introduced in 3.0 with commit f1407d5c66240b33d11a7f1a41d55ccf6a9d7647 and fixed in 6.18 with commit eb9ac779830b2235847b72cb15cf07c7e3333c5e

Please see https://www.kernel.org for a full list of currently supported
kernel versions by the kernel community.

Unaffected versions might change over time as fixes are backported to
older supported kernel versions.  The official CVE entry at
	https://cve.org/CVERecord/?id=CVE-2025-68327
will be updated if fixes are backported, please check that for the most
up to date information about this issue.


Affected files
==============

The file(s) affected by this issue are:
	drivers/usb/renesas_usbhs/common.c


Mitigation
==========

The Linux kernel CVE team recommends that you update to the latest
stable kernel version for this, and many other bugfixes.  Individual
changes are never tested alone, but rather are part of a larger kernel
release.  Cherry-picking individual commits is not recommended or
supported by the Linux kernel community at all.  If however, updating to
the latest release is impossible, the individual changes to resolve this
issue can be found at these commits:
	https://git.kernel.org/stable/c/fd1a7bf3a8cac13f6d2d52d8c7570ba41621db9a
	https://git.kernel.org/stable/c/cd5e86e34c66a831b5cb9b720ad411a006962cc8
	https://git.kernel.org/stable/c/230b1bc1310edcd5c1b71dcd6b77ccba43139cb5
	https://git.kernel.org/stable/c/9d86bc8b188a77c8d6f7252280ec2bd24ad6fbc1
	https://git.kernel.org/stable/c/26838f147aeaa8f820ff799d72815fba5e209bd9
	https://git.kernel.org/stable/c/aa658a6d5ac21c7cde54c6d015f2d4daff32e02d
	https://git.kernel.org/stable/c/eb9ac779830b2235847b72cb15cf07c7e3333c5e

Call Stacks:
Stack 0:
  usbhs_sys_function_pullup
  usbhsg_update_pullup
  usbhsg_pullup
  usb_gadget_disconnect_locked
  gadget_unbind_driver
  device_remove
  device_release_driver_internal
  device_release_driver
  bus_remove_device
  device_del
  usb_del_gadget
  usb_del_gadget_udc
  usbhs_mod_gadget_remove
  usbhs_mod_remove
  usbhs_remove
  platform_remove
  device_remove
  device_release_driver_internal
  device_driver_detach
  unbind_store
  drv_attr_store
  sysfs_kf_write
  kernfs_fop_write_iter
  vfs_write
  ksys_write
  __arm64_sys_write
  invoke_syscall
  el0_svc_common.constprop.0
  do_el0_svc
  el0_svc
  el0t_64_sync_handler
  el0t_64_sync

Functions:
/* Call stack 0 */
/* file: linux_src/linux-5.14/drivers/net/phy/mdio_bus.c */
		mdiodev->device_remove(mdiodev);
		mdiodev->device_free(mdiodev);
	}
error_reset_gpiod:
	/* Put PHYs in RESET to save power */
	if (bus->reset_gpiod)
		gpiod_set_value_cansleep(bus->reset_gpiod, 1);

	device_del(&bus->dev);
	return err;
}
EXPORT_SYMBOL(__mdiobus_register);

void mdiobus_unregister(struct mii_bus *bus)
{
	struct mdio_device *mdiodev;
	int i;

	if (WARN_ON_ONCE(bus->state != MDIOBUS_REGISTERED))
		return;
	bus->state = MDIOBUS_UNREGISTERED;

	for (i = 0; i < PHY_MAX_ADDR; i++) {
		mdiodev = bus->mdio_map[i];
		if (!mdiodev)
			continue;

		if (mdiodev->reset_gpio)
			gpiod_put(mdiodev->reset_gpio);

		mdiodev->device_remove(mdiodev);
		mdiodev->device_free(mdiodev);
	}

	/* Put PHYs in RESET to save power */
	if (bus->reset_gpiod)
		gpiod_set_value_cansleep(bus->reset_gpiod, 1);

	device_del(&bus->dev);
}
/* file: linux_src/linux-5.12/drivers/base/dd.c */
void device_release_driver_internal(struct device *dev,
				    struct device_driver *drv,
				    struct device *parent)
{
	__device_driver_lock(dev, parent);

	if (!drv || drv == dev->driver)
		__device_release_driver(dev, parent);

	__device_driver_unlock(dev, parent);
}
/* file: linux_src/linux-3.0/drivers/ide/ide-proc.c */
	device_release_driver(dev);
	/* FIXME: device can still be in use by previous driver */
	strlcpy(drive->driver_req, driver, sizeof(drive->driver_req));
	err = device_attach(dev);
	if (err < 0)
		printk(KERN_WARNING "IDE: %s: device_attach error: %d\n",
			__func__, err);
	drive->driver_req[0] = 0;
	if (dev->driver == NULL) {
		err = device_attach(dev);
		if (err < 0)
			printk(KERN_WARNING
				"IDE: %s: device_attach(2) error: %d\n",
				__func__, err);
	}
/* file: linux_src/linux-5.12/drivers/base/bus.c */
void bus_remove_device(struct device *dev)
{
	struct bus_type *bus = dev->bus;
	struct subsys_interface *sif;

	if (!bus)
		return;

	mutex_lock(&bus->p->mutex);
	list_for_each_entry(sif, &bus->p->interfaces, node)
		if (sif->remove_dev)
			sif->remove_dev(dev, sif);
	mutex_unlock(&bus->p->mutex);

	sysfs_remove_link(&dev->kobj, "subsystem");
	sysfs_remove_link(&dev->bus->p->devices_kset->kobj,
			  dev_name(dev));
	device_remove_groups(dev, dev->bus->dev_groups);
	if (klist_node_attached(&dev->p->knode_bus))
		klist_del(&dev->p->knode_bus);

	pr_debug("bus: '%s': remove device %s\n",
		 dev->bus->name, dev_name(dev));
	device_release_driver(dev);
	bus_put(dev->bus);
}
/* file: linux_src/linux-5.12/kernel/events/core.c */
	device_del(pmu->dev);

free_dev:
	put_device(pmu->dev);
	goto out;
}

static struct lock_class_key cpuctx_mutex;
static struct lock_class_key cpuctx_lock;

int perf_pmu_register(struct pmu *pmu, const char *name, int type)
{
	int cpu, ret, max = PERF_TYPE_MAX;

	mutex_lock(&pmus_lock);
	ret = -ENOMEM;
	pmu->pmu_disable_count = alloc_percpu(int);
	if (!pmu->pmu_disable_count)
		goto unlock;

	pmu->type = -1;
	if (!name)
		goto skip_type;
	pmu->name = name;

	if (type != PERF_TYPE_SOFTWARE) {
		if (type >= 0)
			max = type;

		ret = idr_alloc(&pmu_idr, pmu, max, 0, GFP_KERNEL);
		if (ret < 0)
			goto free_pdc;

		WARN_ON(type >= 0 && ret != type);

		type = ret;
	}
	pmu->type = type;

	if (pmu_bus_running) {
		ret = pmu_dev_alloc(pmu);
		if (ret)
			goto free_idr;
	}

skip_type:
	if (pmu->task_ctx_nr == perf_hw_context) {
		static int hw_context_taken = 0;

		/*
		 * Other than systems with heterogeneous CPUs, it never makes
		 * sense for two PMUs to share perf_hw_context. PMUs which are
		 * uncore must use perf_invalid_context.
		 */
		if (WARN_ON_ONCE(hw_context_taken &&
		    !(pmu->capabilities & PERF_PMU_CAP_HETEROGENEOUS_CPUS)))
			pmu->task_ctx_nr = perf_invalid_context;

		hw_context_taken = 1;
	}

	pmu->pmu_cpu_context = find_pmu_context(pmu->task_ctx_nr);
	if (pmu->pmu_cpu_context)
		goto got_cpu_context;

	ret = -ENOMEM;
	pmu->pmu_cpu_context = alloc_percpu(struct perf_cpu_context);
	if (!pmu->pmu_cpu_context)
		goto free_dev;

	for_each_possible_cpu(cpu) {
		struct perf_cpu_context *cpuctx;

		cpuctx = per_cpu_ptr(pmu->pmu_cpu_context, cpu);
		__perf_event_init_context(&cpuctx->ctx);
		lockdep_set_class(&cpuctx->ctx.mutex, &cpuctx_mutex);
		lockdep_set_class(&cpuctx->ctx.lock, &cpuctx_lock);
		cpuctx->ctx.pmu = pmu;
		cpuctx->online = cpumask_test_cpu(cpu, perf_online_mask);

		__perf_mux_hrtimer_init(cpuctx, cpu);

		cpuctx->heap_size = ARRAY_SIZE(cpuctx->heap_default);
		cpuctx->heap = cpuctx->heap_default;
	}

got_cpu_context:
	if (!pmu->start_txn) {
		if (pmu->pmu_enable) {
			/*
			 * If we have pmu_enable/pmu_disable calls, install
			 * transaction stubs that use that to try and batch
			 * hardware accesses.
			 */
			pmu->start_txn  = perf_pmu_start_txn;
			pmu->commit_txn = perf_pmu_commit_txn;
			pmu->cancel_txn = perf_pmu_cancel_txn;
		} else {
			pmu->start_txn  = perf_pmu_nop_txn;
			pmu->commit_txn = perf_pmu_nop_int;
			pmu->cancel_txn = perf_pmu_nop_void;
		}
	}

	if (!pmu->pmu_enable) {
		pmu->pmu_enable  = perf_pmu_nop_void;
		pmu->pmu_disable = perf_pmu_nop_void;
	}

	if (!pmu->check_period)
		pmu->check_period = perf_event_nop_int;

	if (!pmu->event_idx)
		pmu->event_idx = perf_event_idx_default;

	/*
	 * Ensure the TYPE_SOFTWARE PMUs are at the head of the list,
	 * since these cannot be in the IDR. This way the linear search
	 * is fast, provided a valid software event is provided.
	 */
	if (type == PERF_TYPE_SOFTWARE || !name)
		list_add_rcu(&pmu->entry, &pmus);
	else
		list_add_tail_rcu(&pmu->entry, &pmus);

	atomic_set(&pmu->exclusive_cnt, 0);
	ret = 0;
unlock:
	mutex_unlock(&pmus_lock);

	return ret;

free_dev:
	device_del(pmu->dev);
	put_device(pmu->dev);

free_idr:
	if (pmu->type != PERF_TYPE_SOFTWARE)
		idr_remove(&pmu_idr, pmu->type);

free_pdc:
	free_percpu(pmu->pmu_disable_count);
	goto unlock;
}
/* file: linux_src/linux-3.0/drivers/usb/renesas_usbhs/mod_gadget.c */
void __devexit usbhs_mod_gadget_remove(struct usbhs_priv *priv)
{
	struct usbhsg_gpriv *gpriv = usbhsg_priv_to_gpriv(priv);

	kfree(gpriv->uep);
	kfree(gpriv);
}
/* file: linux_src/linux-3.0/drivers/usb/renesas_usbhs/common.c */
	usbhs_mod_remove(priv);
probe_end_pipe_exit:
	usbhs_pipe_remove(priv);
probe_end_iounmap:
	iounmap(priv->base);
probe_end_kfree:
	kfree(priv);

	dev_info(&pdev->dev, "probe failed\n");

	return ret;
}

static int __devexit usbhs_remove(struct platform_device *pdev)
{
	struct usbhs_priv *priv = usbhs_pdev_to_priv(pdev);
	struct renesas_usbhs_platform_info *info = pdev->dev.platform_data;
	struct renesas_usbhs_driver_callback *dfunc = &info->driver_callback;

	dev_dbg(&pdev->dev, "usb remove\n");

	dfunc->notify_hotplug = NULL;

	/* power off */
	if (!usbhsc_flags_has(priv, USBHSF_RUNTIME_PWCTRL))
		usbhsc_power_ctrl(priv, 0);

	pm_runtime_disable(&pdev->dev);

	usbhs_platform_call(priv, hardware_exit, pdev);
	usbhs_mod_remove(priv);
	usbhs_pipe_remove(priv);
	iounmap(priv->base);
	kfree(priv);

	return 0;
}
/* file: linux_src/linux-3.0/drivers/usb/renesas_usbhs/common.c */
static int __devexit usbhs_remove(struct platform_device *pdev)
{
	struct usbhs_priv *priv = usbhs_pdev_to_priv(pdev);
	struct renesas_usbhs_platform_info *info = pdev->dev.platform_data;
	struct renesas_usbhs_driver_callback *dfunc = &info->driver_callback;

	dev_dbg(&pdev->dev, "usb remove\n");

	dfunc->notify_hotplug = NULL;

	/* power off */
	if (!usbhsc_flags_has(priv, USBHSF_RUNTIME_PWCTRL))
		usbhsc_power_ctrl(priv, 0);

	pm_runtime_disable(&pdev->dev);

	usbhs_platform_call(priv, hardware_exit, pdev);
	usbhs_mod_remove(priv);
	usbhs_pipe_remove(priv);
	iounmap(priv->base);
	kfree(priv);

	return 0;
}
/* file: linux_src/linux-3.0/drivers/video/mbx/mbxfb.c */
				mfbi->platform_remove(fbi);

			if (mfbi->fb_virt_addr)
				iounmap(mfbi->fb_virt_addr);
			if (mfbi->reg_virt_addr)
				iounmap(mfbi->reg_virt_addr);
			if (mfbi->reg_req)
				release_mem_region(mfbi->reg_req->start,
						   res_size(mfbi->reg_req));
			if (mfbi->fb_req)
				release_mem_region(mfbi->fb_req->start,
						   res_size(mfbi->fb_req));
		}
		framebuffer_release(fbi);
	}

	return 0;
}

static struct platform_driver mbxfb_driver = {
	.probe = mbxfb_probe,
	.remove = mbxfb_remove,
	.suspend = mbxfb_suspend,
	.resume = mbxfb_resume,
	.driver = {
		.name = "mbx-fb",
	},
}
/* file: linux_src/linux-5.14/drivers/net/phy/mdio_bus.c */
		mdiodev->device_remove(mdiodev);
		mdiodev->device_free(mdiodev);
	}
error_reset_gpiod:
	/* Put PHYs in RESET to save power */
	if (bus->reset_gpiod)
		gpiod_set_value_cansleep(bus->reset_gpiod, 1);

	device_del(&bus->dev);
	return err;
}
EXPORT_SYMBOL(__mdiobus_register);

void mdiobus_unregister(struct mii_bus *bus)
{
	struct mdio_device *mdiodev;
	int i;

	if (WARN_ON_ONCE(bus->state != MDIOBUS_REGISTERED))
		return;
	bus->state = MDIOBUS_UNREGISTERED;

	for (i = 0; i < PHY_MAX_ADDR; i++) {
		mdiodev = bus->mdio_map[i];
		if (!mdiodev)
			continue;

		if (mdiodev->reset_gpio)
			gpiod_put(mdiodev->reset_gpio);

		mdiodev->device_remove(mdiodev);
		mdiodev->device_free(mdiodev);
	}

	/* Put PHYs in RESET to save power */
	if (bus->reset_gpiod)
		gpiod_set_value_cansleep(bus->reset_gpiod, 1);

	device_del(&bus->dev);
}
/* file: linux_src/linux-5.12/drivers/base/dd.c */
void device_release_driver_internal(struct device *dev,
				    struct device_driver *drv,
				    struct device *parent)
{
	__device_driver_lock(dev, parent);

	if (!drv || drv == dev->driver)
		__device_release_driver(dev, parent);

	__device_driver_unlock(dev, parent);
}
/* file: linux_src/linux-6.2/drivers/dma/idxd/compat.c */
static ssize_t unbind_store(struct device_driver *drv, const char *buf, size_t count)
{
	struct bus_type *bus = drv->bus;
	struct device *dev;
	int rc = -ENODEV;

	dev = bus_find_device_by_name(bus, NULL, buf);
	if (dev && dev->driver) {
		device_driver_detach(dev);
		rc = count;
	}

	return rc;
}
/* file: linux_src/linux-3.0/drivers/base/bus.c */
static ssize_t drv_attr_store(struct kobject *kobj, struct attribute *attr,
			      const char *buf, size_t count)
{
	struct driver_attribute *drv_attr = to_drv_attr(attr);
	struct driver_private *drv_priv = to_driver(kobj);
	ssize_t ret = -EIO;

	if (drv_attr->store)
		ret = drv_attr->store(drv_priv->driver, buf, count);
	return ret;
}
/* file: linux_src/linux-6.11/fs/sysfs/file.c */
static ssize_t sysfs_kf_write(struct kernfs_open_file *of, char *buf,
			      size_t count, loff_t pos)
{
	const struct sysfs_ops *ops = sysfs_file_ops(of->kn);
	struct kobject *kobj = of->kn->parent->priv;

	if (!count)
		return 0;

	return ops->store(kobj, of->kn->priv, buf, count);
}
/* file: linux_src/linux-6.14/fs/kernfs/file.c */
static ssize_t kernfs_fop_write_iter(struct kiocb *iocb, struct iov_iter *iter)
{
	struct kernfs_open_file *of = kernfs_of(iocb->ki_filp);
	ssize_t len = iov_iter_count(iter);
	const struct kernfs_ops *ops;
	char *buf;

	if (of->atomic_write_len) {
		if (len > of->atomic_write_len)
			return -E2BIG;
	} else {
		len = min_t(size_t, len, PAGE_SIZE);
	}

	buf = of->prealloc_buf;
	if (buf)
		mutex_lock(&of->prealloc_mutex);
	else
		buf = kmalloc(len + 1, GFP_KERNEL);
	if (!buf)
		return -ENOMEM;

	if (copy_from_iter(buf, len, iter) != len) {
		len = -EFAULT;
		goto out_free;
	}
	buf[len] = '\0';	/* guarantee string termination */

	/*
	 * @of->mutex nests outside active ref and is used both to ensure that
	 * the ops aren't called concurrently for the same open file.
	 */
	mutex_lock(&of->mutex);
	if (!kernfs_get_active(of->kn)) {
		mutex_unlock(&of->mutex);
		len = -ENODEV;
		goto out_free;
	}

	ops = kernfs_ops(of->kn);
	if (ops->write)
		len = ops->write(of, buf, len, iocb->ki_pos);
	else
		len = -EINVAL;

	kernfs_put_active(of->kn);
	mutex_unlock(&of->mutex);

	if (len > 0)
		iocb->ki_pos += len;

out_free:
	if (buf == of->prealloc_buf)
		mutex_unlock(&of->prealloc_mutex);
	else
		kfree(buf);
	return len;
}
/* file: linux_src/linux-6.10/fs/read_write.c */
ssize_t vfs_write(struct file *file, const char __user *buf, size_t count, loff_t *pos)
{
	ssize_t ret;

	if (!(file->f_mode & FMODE_WRITE))
		return -EBADF;
	if (!(file->f_mode & FMODE_CAN_WRITE))
		return -EINVAL;
	if (unlikely(!access_ok(buf, count)))
		return -EFAULT;

	ret = rw_verify_area(WRITE, file, pos, count);
	if (ret)
		return ret;
	if (count > MAX_RW_COUNT)
		count =  MAX_RW_COUNT;
	file_start_write(file);
	if (file->f_op->write)
		ret = file->f_op->write(file, buf, count, pos);
	else if (file->f_op->write_iter)
		ret = new_sync_write(file, buf, count, pos);
	else
		ret = -EINVAL;
	if (ret > 0) {
		fsnotify_modify(file);
		add_wchar(current, ret);
	}
	inc_syscw(current);
	file_end_write(file);
	return ret;
}
/* file: linux_src/linux-6.10/arch/s390/kernel/compat_linux.c */
	return ksys_write(fd, buf, count);
}

/*
 * 31 bit emulation wrapper functions for sys_fadvise64/fadvise64_64.
 * These need to rewrite the advise values for POSIX_FADV_{DONTNEED,NOREUSE}
/* file: linux_src/linux-6.10/arch/arm64/kernel/syscall.c */
static void invoke_syscall(struct pt_regs *regs, unsigned int scno,
			   unsigned int sc_nr,
			   const syscall_fn_t syscall_table[])
{
	long ret;

	add_random_kstack_offset();

	if (scno < sc_nr) {
		syscall_fn_t syscall_fn;
		syscall_fn = syscall_table[array_index_nospec(scno, sc_nr)];
		ret = __invoke_syscall(regs, syscall_fn);
	} else {
		ret = do_ni_syscall(regs, scno);
	}

	syscall_set_return_value(current, regs, 0, ret);

	/*
	 * This value will get limited by KSTACK_OFFSET_MAX(), which is 10
	 * bits. The actual entropy will be further reduced by the compiler
	 * when applying stack alignment constraints: the AAPCS mandates a
	 * 16-byte aligned SP at function boundaries, which will remove the
	 * 4 low bits from any entropy chosen here.
	 *
	 * The resulting 6 bits of entropy is seen in SP[9:4].
	 */
	choose_random_kstack_offset(get_random_u16());
}
/* file: linux_src/linux-6.10/arch/arm64/kernel/entry-common.c */
	do_el0_svc(regs);
	exit_to_user_mode(regs);
}

static void noinstr el0_fpac(struct pt_regs *regs, unsigned long esr)
{
	enter_from_user_mode(regs);
	local_daif_restore(DAIF_PROCCTX);
	do_el0_fpac(regs, esr);
	exit_to_user_mode(regs);
}
/* file: linux_src/linux-6.10/arch/arm64/kernel/entry-common.c */
static void noinstr el0_svc(struct pt_regs *regs)
{
	enter_from_user_mode(regs);
	cortex_a76_erratum_1463225_svc_handler();
	fp_user_discard();
	local_daif_restore(DAIF_PROCCTX);
	do_el0_svc(regs);
	exit_to_user_mode(regs);
}
/* file: linux_src/linux-6.10/arch/arm64/kernel/entry-common.c */
asmlinkage void noinstr el0t_64_sync_handler(struct pt_regs *regs)
{
	unsigned long esr = read_sysreg(esr_el1);

	switch (ESR_ELx_EC(esr)) {
	case ESR_ELx_EC_SVC64:
		el0_svc(regs);
		break;
	case ESR_ELx_EC_DABT_LOW:
		el0_da(regs, esr);
		break;
	case ESR_ELx_EC_IABT_LOW:
		el0_ia(regs, esr);
		break;
	case ESR_ELx_EC_FP_ASIMD:
		el0_fpsimd_acc(regs, esr);
		break;
	case ESR_ELx_EC_SVE:
		el0_sve_acc(regs, esr);
		break;
	case ESR_ELx_EC_SME:
		el0_sme_acc(regs, esr);
		break;
	case ESR_ELx_EC_FP_EXC64:
		el0_fpsimd_exc(regs, esr);
		break;
	case ESR_ELx_EC_SYS64:
	case ESR_ELx_EC_WFx:
		el0_sys(regs, esr);
		break;
	case ESR_ELx_EC_SP_ALIGN:
		el0_sp(regs, esr);
		break;
	case ESR_ELx_EC_PC_ALIGN:
		el0_pc(regs, esr);
		break;
	case ESR_ELx_EC_UNKNOWN:
		el0_undef(regs, esr);
		break;
	case ESR_ELx_EC_BTI:
		el0_bti(regs);
		break;
	case ESR_ELx_EC_MOPS:
		el0_mops(regs, esr);
		break;
	case ESR_ELx_EC_BREAKPT_LOW:
	case ESR_ELx_EC_SOFTSTP_LOW:
	case ESR_ELx_EC_WATCHPT_LOW:
	case ESR_ELx_EC_BRK64:
		el0_dbg(regs, esr);
		break;
	case ESR_ELx_EC_FPAC:
		el0_fpac(regs, esr);
		break;
	default:
		el0_inv(regs, esr);
	}
}

Conflicting Resources:
  USBHS clocks
